!!!COM: Bach, Johann Sebastian
!!!OTL: Ein' feste Burg ist unser Gott
!!!ONM: No. 273
!!!OCL: Erk
!!!YOE: Riemenschneider, Albert
!!!OPR: 371 Harmonized Chorales and 69 Chorale Melodies with Figured Bass
!!!OPT: Bach Chorale Harmonizations
**kern	**kern	**kern	**kern
! bass	! tenor	! alto	! soprano
*M4/4	*M4/4	*M4/4	*M4/4
*D:	*D:	*D:	*D:
8d	8f#	4a	4dd
8c#	8e	.	.
=1	=1	=1	=1
4B	8d	8a	4dd
.	8e	8g	.
8A	8f#	8f#	4dd
8G	8g	8e	.
8F#	4a	4d	8a
8G	.	.	8b
8F#	4g	4e	4cc#
8E	.	.	.
=2	=2	=2	=2
4F#	4f#	8A	8dd
.	.	[8a	8cc#
4E	8B	8a]	4b
.	8e	8g#	.
4AA;	4c#;	4e;	4a;
4BB	8F#	4b	4dd
.	8G#	.	.
=3	=3	=3	=3
8C#	4A	8e	4cc#
8D	.	8f#	.
4E	8e	4g	4b
.	8d	.	.
4F#	4c#	8f#	4a
.	.	8e	.
8G	8B	8d	8b
8A	8c#	8c#	8a
=4	=4	=4	=4
8B	4d	4B	8g
8G	.	.	8f#
8A	8A	4c#	4e
8AA	8G	.	.
4D;	4F#;	4A;	4d;
!! Repeat from the beginning.
8d	8f#	4a	4dd
8c#	8e	.	.
=1	=1	=1	=1
4B	8d	8a	4dd
.	8e	8g	.
8A	8f#	8f#	4dd
8G	8g	8e	.
8F#	4a	4d	8a
8G	.	.	8b
8F#	4g	4e	4cc#
8E	.	.	.
=2	=2	=2	=2
4F#	4f#	8A	8dd
.	.	[8a	8cc#
4E	8B	8a]	4b
.	8e	8g#	.
4AA;	4c#;	4e;	4a;
4BB	8F#	4b	4dd
.	8G#	.	.
=3	=3	=3	=3
8C#	4A	8e	4cc#
8D	.	8f#	.
4E	8e	4g	4b
.	8d	.	.
4F#	4c#	8f#	4a
.	.	8e	.
8G	8B	8d	8b
8A	8c#	8c#	8a
=4	=4	=4	=4
8B	4d	4B	8g
8G	.	.	8f#
8A	8A	4c#	4e
8AA	8G	.	.
4D;	4F#;	4A;	4d;
!! Continuing.
8D	8F#	4d	4d
8E	8G	.	.
=5	=5	=5	=5
4F#	8A	8c#	4a
.	8d	8f#	.
4G#	8c#	4e	4b
.	8B	.	.
8A	4c#	8e	4a
8D	.	8f#	.
4E	4B	4e	4g#
=6	=6	=6	=6
2AA;	2c#;	2e;	2a;
4BB	8F#	4d	4d
.	8G	.	.
4F#	4A	8d	4a
.	.	8cn	.
=7	=7	=7	=7
4G	4d	8B	4b
.	.	8d	.
4E	4e	4g	4cc#
4D;	4A;	4f#;	4dd;
4F#	4A	4f#	4cc#
=8	=8	=8	=8
4BB	8A	4f#	4dd
.	8G#	.	.
4C#	4A	8e	4cc#
.	.	8a	.
4D	4A	4f#	2b
4E	4G#	8e	.
.	.	8d	.
=9	=9	=9	=9
4AA;	4E;	4c#;	4a;
8E	8Gn	4e	4b
8F#	8A	.	.
4G	8B	8d	4b
.	8c#	8e	.
4D	8d	4f#	4a
.	8cn	.	.
=10	=10	=10	=10
4D#	4B	4f#	8b
.	.	.	8a
4E	4B	8f#	4g
.	.	8e	.
4BB;	4B;	4d#;	4f#;
4BB	8B	4f#	4ddn
.	8A	.	.
=11	=11	=11	=11
8E	8G	4e	4cc#
8F#	8A	.	.
8G	4B	8dn	4b
8E	.	8g	.
8C#	8e	8g	4a
8AA	8c#	16f#	.
.	.	16e	.
8D	4d	4f#	8b
8C#	.	.	8a
=12	=12	=12	=12
8BB	4d	8g	8g
8GG	.	8B	8f#
4AA	8A	4c#	4e
.	8G	.	.
4DD;	4F#;	4A;	4d;
==	==	==	==
*-	*-	*-	*-
!!!CDT: 1685/3//-1750/7/28
!!!OCY: Deutschland
!!!AGN: chorale
!!!AST: Baroque
!!!AIN: vox
!!!YOY: 1941
!!!PPP: New York; London
!!!PPR: G. Schirmer
!!!ENC: David Huron
!!!EED: David Huron
!!!YEN: United States of America
!!!YER: 1992
!!!YEC: Copyright 1992 David Huron
!!!YEM: Rights to all derivative electronic formats reserved.
!!!YER: March 20, 1996
!!!AMT: simple quadruple
!!!EEV: 1.1
